X: 2
T: Brit In The Liffey
Z: Bradon
S: https://thesession.org/tunes/5101#setting30812
R: jig
M: 6/8
L: 1/8
K: Bmin
|:f2 B BAF | ~B3 dBf |ecA A3| cAc efg |
f2 B BAF | ~B3 dBe |(3fga f bfe | dBA B3 :|
|: ~B3 dfe | dcB AFG| A(3A/2A/2A/2 GAF |AEA FAD|
~B3 dfe | dcd ede|(3fga f bfe | dBA B3 :|
|: ~d3 ede | (3fgaf afb| faf bfe |ded dBA|
~d3 ede | (3fgaf afb| (3fgaf bfe|edA ~B3 :|
